X: 21709
T: Kilwinning's Steeple
R: reel
M: 4/4
K: Amajor
g|a2 (ec) defg|afec dBBg|a2 (ec) defg|afec (3AAA Ag|
a2 (ec) defg|afec dBBc|Ac (3efg (ab)af|edBd cA A||
B|c2 cA d2 dB|efec dBBd|c2 cA defg|afed cAAB|
c2 cA d2 dB|efec dBBd|Ac (3efg (ab)af|ecBd cA A||

